Numix-GalliumOS/scalable/devices/input-keyboard-symbolic-1.svg

<svg xmlns="http://www.w3.org/2000/svg" viewBox="0 0 16 16">
 <path d="M 3,6 3,7 4,7 4,6 z M 5,6 5,7 6,7 6,6 z M 7,6 7,7 8,7 8,6 z m 2,0 0,1 1,0 0,-1 z m 2,0 0,1 1,0 0,3 1,0 0,-4 z m -8,3 0,1 2,0 0,-1 z m 3,0 0,1 5,0 0,-1 z" style="fill:#bebebe;opacity:1;fill-opacity:1;stroke:none"/>
 <path d="m 2 3 c -1.108 0 -2 0.892 -2 2 l 0 6 c 0 1.108 0.892 2 2 2 l 12 0 c 1.108 0 2 -0.892 2 -2 l 0 -6 c 0 -1.108 -0.892 -2 -2 -2 l -12 0 z m 0 2 l 12 0 l 0 6 l -12 0 l 0 -6 z" style="fill:#bebebe;fill-opacity:1;stroke:none"/>
</svg>

<?xml version="1.0" encoding="UTF-8" standalone="no"?>
<svg
   xmlns:dc="http://purl.org/dc/elements/1.1/"
   xmlns:cc="http://creativecommons.org/ns#"
   xmlns:rdf="http://www.w3.org/1999/02/22-rdf-syntax-ns#"
   xmlns:svg="http://www.w3.org/2000/svg"
   xmlns="http://www.w3.org/2000/svg"
   xmlns:sodipodi="http://sodipodi.sourceforge.net/DTD/sodipodi-0.dtd"
   xmlns:inkscape="http://www.inkscape.org/namespaces/inkscape"
   width="16"
   viewBox="0 0 16 16"
   height="16"
   id="svg2"
   version="1.1"
   inkscape:version="0.48.4 r9939"
   sodipodi:docname="input-keyboard-symbolic.svg">
  <metadata
     id="metadata26">
    <rdf:RDF>
      <cc:Work
         rdf:about="">
        <dc:format>image/svg+xml</dc:format>
        <dc:type
           rdf:resource="http://purl.org/dc/dcmitype/StillImage" />
        <dc:title></dc:title>
      </cc:Work>
    </rdf:RDF>
  </metadata>
  <defs
     id="defs24" />
  <sodipodi:namedview
     pagecolor="#ffffff"
     bordercolor="#666666"
     borderopacity="1"
     objecttolerance="10"
     gridtolerance="10"
     guidetolerance="10"
     inkscape:pageopacity="0"
     inkscape:pageshadow="2"
     inkscape:window-width="1920"
     inkscape:window-height="1023"
     id="namedview22"
     showgrid="true"
     inkscape:zoom="51.362483"
     inkscape:cx="3.0606514"
     inkscape:cy="5.6619251"
     inkscape:window-x="0"
     inkscape:window-y="28"
     inkscape:window-maximized="1"
     inkscape:current-layer="svg2">
    <inkscape:grid
       type="xygrid"
       id="grid3003"
       empspacing="5"
       visible="true"
       enabled="true"
       snapvisiblegridlinesonly="true" />
  </sodipodi:namedview>
  <path
     style="opacity:1;fill:#bebebe;fill-opacity:1;stroke:none"
     d="M 3,6 3,7 4,7 4,6 z M 5,6 5,7 6,7 6,6 z M 7,6 7,7 8,7 8,6 z m 2,0 0,1 1,0 0,-1 z m 2,0 0,1 1,0 0,3 1,0 0,-4 z m -8,3 0,1 2,0 0,-1 z m 3,0 0,1 5,0 0,-1 z"
     id="rect2983"
     inkscape:connector-curvature="0"
     sodipodi:nodetypes="ccccccccccccccccccccccccccccccccccccc" />
  <path
     style="fill:#bebebe;fill-opacity:1;stroke:none"
     d="M 2 3 C 0.892 3 0 3.892 0 5 L 0 11 C 0 12.108 0.892 13 2 13 L 14 13 C 15.108 13 16 12.108 16 11 L 16 5 C 16 3.892 15.108 3 14 3 L 2 3 z M 2 5 L 14 5 L 14 11 L 2 11 L 2 5 z "
     id="rect3005" />
</svg>
